X:257
T: NUN ADJES JETZT MUSS ICH FORT
N: E1397
O: Europa, Mitteleuropa, Deutschland, Hessen, Taunus; Lahntal; Odenwald
R: Staende -, Soldaten - Lied, Deserteur
M: 4/4
L: 1/8
K: G
DG | G2B2B2cA | A2G2z
GFG | A2d2d2cB | B2A2z2
dc | BBBBB2AB | c4z2
cB | AAAAAedc | B2
ded2Ac | B4z2
dc | BBBBB2AB | c4z2
cB | AAAAAedc | B2
ded2Ac | B4z2

@@@ Tune index: 4941
